frontend/public/ei_camera.svg

<svg width="48" height="48" viewBox="0 0 48 48" fill="none" xmlns="http://www.w3.org/2000/svg">
<path d="M37.4397 36.48H10.5597C8.92769 36.48 7.67969 35.232 7.67969 33.6V16.32C7.67969 14.688 8.92769 13.44 10.5597 13.44H16.3197C16.5117 13.44 16.7997 13.248 16.8957 13.152L17.9517 11.04C18.3357 10.272 19.2957 9.69604 20.1597 9.69604H27.8397C28.7037 9.69604 29.6637 10.272 30.0477 11.04L31.1037 13.152C31.1997 13.344 31.4877 13.44 31.6797 13.44H37.4397C39.0717 13.44 40.3197 14.688 40.3197 16.32V33.6C40.3197 35.232 39.0717 36.48 37.4397 36.48ZM10.5597 15.36C9.98369 15.36 9.59969 15.744 9.59969 16.32V33.6C9.59969 34.176 9.98369 34.56 10.5597 34.56H37.4397C38.0157 34.56 38.3997 34.176 38.3997 33.6V16.32C38.3997 15.744 38.0157 15.36 37.4397 15.36H31.6797C30.8157 15.36 29.8557 14.784 29.4717 14.016L28.4157 11.904C28.3197 11.712 28.0317 11.52 27.8397 11.52H20.1597C19.9677 11.52 19.6797 11.712 19.5837 11.808L18.5277 13.92C18.1437 14.784 17.1837 15.36 16.3197 15.36H10.5597Z" fill="#F24E1E"/>
<path d="M23.9994 32.6401C19.1994 32.6401 15.3594 28.8001 15.3594 24.0001C15.3594 19.2001 19.1994 15.3601 23.9994 15.3601C28.7994 15.3601 32.6394 19.2001 32.6394 24.0001C32.6394 28.8001 28.7994 32.6401 23.9994 32.6401ZM23.9994 17.2801C20.2554 17.2801 17.2794 20.2561 17.2794 24.0001C17.2794 27.7441 20.2554 30.7201 23.9994 30.7201C27.7434 30.7201 30.7194 27.7441 30.7194 24.0001C30.7194 20.2561 27.7434 17.2801 23.9994 17.2801Z" fill="#F24E1E"/>
<path d="M33.6006 18.2401C34.1308 18.2401 34.5606 17.8103 34.5606 17.2801C34.5606 16.7499 34.1308 16.3201 33.6006 16.3201C33.0704 16.3201 32.6406 16.7499 32.6406 17.2801C32.6406 17.8103 33.0704 18.2401 33.6006 18.2401Z" fill="#F24E1E"/>
<path d="M11.5195 11.52H15.3595V12.48H11.5195V11.52ZM23.9995 20.16V19.2C21.3115 19.2 19.1995 21.312 19.1995 24H20.1595C20.1595 21.888 21.8875 20.16 23.9995 20.16Z" fill="#F24E1E"/>
</svg>

<?xml version="1.0" encoding="UTF-8"?>
<svg id="Layer_1" data-name="Layer 1" xmlns="http://www.w3.org/2000/svg" width="48" height="48" viewBox="0 0 48 48">
  <defs>
    <style>
      .cls-1 {
        fill: #eece93;
        stroke-width: 0px;
      }
    </style>
  </defs>
  <path class="cls-1" d="M37.44,36.48H10.56c-1.63,0-2.88-1.25-2.88-2.88v-17.28c0-1.63,1.25-2.88,2.88-2.88h5.76c.19,0,.48-.19.58-.29l1.06-2.11c.38-.77,1.34-1.34,2.21-1.34h7.68c.86,0,1.82.58,2.21,1.34l1.06,2.11c.1.19.38.29.58.29h5.76c1.63,0,2.88,1.25,2.88,2.88v17.28c0,1.63-1.25,2.88-2.88,2.88ZM10.56,15.36c-.58,0-.96.38-.96.96v17.28c0,.58.38.96.96.96h26.88c.58,0,.96-.38.96-.96v-17.28c0-.58-.38-.96-.96-.96h-5.76c-.86,0-1.82-.58-2.21-1.34l-1.06-2.11c-.1-.19-.38-.38-.58-.38h-7.68c-.19,0-.48.19-.58.29l-1.06,2.11c-.38.86-1.34,1.44-2.21,1.44h-5.76Z"/>
  <path class="cls-1" d="M24,32.64c-4.8,0-8.64-3.84-8.64-8.64s3.84-8.64,8.64-8.64,8.64,3.84,8.64,8.64-3.84,8.64-8.64,8.64ZM24,17.28c-3.74,0-6.72,2.98-6.72,6.72s2.98,6.72,6.72,6.72,6.72-2.98,6.72-6.72-2.98-6.72-6.72-6.72Z"/>
  <path class="cls-1" d="M33.6,18.24c.53,0,.96-.43.96-.96s-.43-.96-.96-.96-.96.43-.96.96.43.96.96.96Z"/>
  <path class="cls-1" d="M11.52,11.52h3.84v.96h-3.84v-.96ZM24,20.16v-.96c-2.69,0-4.8,2.11-4.8,4.8h.96c0-2.11,1.73-3.84,3.84-3.84Z"/>
</svg>
